build/svg/cmd/32/deletetable.svg

<?xml version="1.0" encoding="UTF-8" standalone="no"?>
<svg
   xmlns:dc="http://purl.org/dc/elements/1.1/"
   xmlns:cc="http://creativecommons.org/ns#"
   xmlns:rdf="http://www.w3.org/1999/02/22-rdf-syntax-ns#"
   xmlns:svg="http://www.w3.org/2000/svg"
   xmlns="http://www.w3.org/2000/svg"
   xmlns:sodipodi="http://sodipodi.sourceforge.net/DTD/sodipodi-0.dtd"
   xmlns:inkscape="http://www.inkscape.org/namespaces/inkscape"
   viewBox="0 0 32 32"
   version="1.1"
   id="svg8"
   sodipodi:docname="deletetable.svg"
   inkscape:version="0.92.4 (5da689c313, 2019-01-14)"
   inkscape:export-filename="/home/jupiter007/Libreoffice yaru theme fullcolor/build/cmd/32/deletetable.png"
   inkscape:export-xdpi="95"
   inkscape:export-ydpi="95">
  <metadata
     id="metadata14">
    <rdf:RDF>
      <cc:Work
         rdf:about="">
        <dc:format>image/svg+xml</dc:format>
        <dc:type
           rdf:resource="http://purl.org/dc/dcmitype/StillImage" />
      </cc:Work>
    </rdf:RDF>
  </metadata>
  <defs
     id="defs12" />
  <sodipodi:namedview
     pagecolor="#ffffff"
     bordercolor="#666666"
     borderopacity="1"
     objecttolerance="10"
     gridtolerance="10"
     guidetolerance="10"
     inkscape:pageopacity="0"
     inkscape:pageshadow="2"
     inkscape:window-width="1920"
     inkscape:window-height="1011"
     id="namedview10"
     showgrid="true"
     inkscape:zoom="20.85965"
     inkscape:cx="10.600041"
     inkscape:cy="10.241904"
     inkscape:window-x="0"
     inkscape:window-y="32"
     inkscape:window-maximized="1"
     inkscape:current-layer="svg8">
    <inkscape:grid
       type="xygrid"
       id="grid821" />
  </sodipodi:namedview>
  <rect
     style="opacity:1;fill:#ffffff;fill-opacity:1;stroke:none;stroke-width:2;stroke-linecap:round;stroke-linejoin:round;stroke-miterlimit:4;stroke-dasharray:none;stroke-opacity:1"
     id="rect820"
     width="22"
     height="22"
     x="5"
     y="5" />
  <path
     d="m 3.9999999,6 v 20 c 0,2 1,2 3,2 H 25 c 2,0 3,0 3,-2 V 6 C 28,4 27,4 25,4 H 6.9999999 c -2,0 -3,0 -3,2 z m 1,0 c 0,-1 1,-1 2,-1 H 12 V 7 H 4.9999999 Z M 13,5 h 6 v 2 h -6 z m 7,0 h 5 c 1,0 2,0 2,1 V 7 H 20 Z M 4.9999999,8 H 12 v 3 H 4.9999999 Z M 13,8 h 6 v 3 h -6 z m 7,0 h 7 v 3 H 20 Z M 4.9999999,12 H 12 v 3 H 4.9999999 Z M 13,12 h 6 v 3 h -6 z m 7,0 h 7 v 3 H 20 Z M 4.9999999,16 H 12 v 3 H 4.9999999 Z M 13,16 h 6 v 3 h -6 z m 7,0 h 7 v 3 H 20 Z M 4.9999999,20 H 12 v 3 H 4.9999999 Z M 13,20 h 6 v 3 h -6 z m 7,0 h 7 v 3 H 20 Z M 4.9999999,24 H 12 v 3 H 6.9999999 c -1,0 -2,0 -2,-1 z M 13,24 h 6 v 3 h -6 z m 7,0 h 7 v 2 c 0,1 -1,1 -2,1 h -5 z"
     id="path2"
     inkscape:connector-curvature="0"
     style="fill:#6d6d6d;fill-opacity:1"
     sodipodi:nodetypes="ccccccccccccccccccccccccccccccccccccccccccccccccccccccccccccccccccccccccccccccccccccccccccccccccccccccc" />
  <circle
     style="opacity:1;vector-effect:none;fill:#c7162b;fill-opacity:1;stroke:none;stroke-width:5;stroke-linecap:butt;stroke-linejoin:round;stroke-miterlimit:4;stroke-dasharray:none;stroke-dashoffset:0;stroke-opacity:1"
     id="path2644"
     cy="25"
     cx="25"
     r="5" />
  <path
     inkscape:connector-curvature="0"
     id="path1063"
     overflow="visible"
     font-weight="400"
     style="color:#000000;font-weight:400;line-height:normal;font-family:sans-serif;text-indent:0;text-align:start;text-decoration:none;text-decoration-line:none;text-decoration-style:solid;text-decoration-color:#000000;text-transform:none;white-space:normal;overflow:visible;isolation:auto;mix-blend-mode:normal;fill:#ffffff;fill-opacity:1;marker:none"
     d="m 22.171575,22.878679 2.121318,2.121322 -2.121318,2.121322 0.707105,0.707105 2.12132,-2.12132 2.121322,2.121318 0.707105,-0.707105 -2.12132,-2.12132 2.12132,-2.12132 L 27.121322,22.171576 25,24.292894 22.87868,22.171574 Z"
     sodipodi:nodetypes="ccccccccccccc" />
</svg>

<svg xmlns="http://www.w3.org/2000/svg" viewBox="0 0 32 32"><path fill="#fff" d="M5 5h22v22H5z"/><path d="M4 6v20c0 2 1 2 3 2h18c2 0 3 0 3-2V6c0-2-1-2-3-2H7C5 4 4 4 4 6zm1 0c0-1 1-1 2-1h5v2H5zm8-1h6v2h-6zm7 0h5c1 0 2 0 2 1v1h-7zM5 8h7v3H5zm8 0h6v3h-6zm7 0h7v3h-7zM5 12h7v3H5zm8 0h6v3h-6zm7 0h7v3h-7zM5 16h7v3H5zm8 0h6v3h-6zm7 0h7v3h-7zM5 20h7v3H5zm8 0h6v3h-6zm7 0h7v3h-7zM5 24h7v3H7c-1 0-2 0-2-1zm8 0h6v3h-6zm7 0h7v2c0 1-1 1-2 1h-5z" fill="#6d6d6d"/><circle cy="25" cx="25" r="5" fill="#c7162b"/><path overflow="visible" font-weight="400" style="line-height:normal;text-indent:0;text-align:start;text-decoration-line:none;text-decoration-style:solid;text-decoration-color:#000;text-transform:none;white-space:normal;isolation:auto;mix-blend-mode:normal;marker:none" d="M22.172 22.879L24.292 25l-2.12 2.121.707.707L25 25.708l2.121 2.12.707-.707L25.708 25l2.12-2.121-.707-.707L25 24.292l-2.121-2.12z" color="#000" font-family="sans-serif" fill="#fff"/></svg>
